icons/speech-bubble-chevron-left.svg

<svg xmlns="http://www.w3.org/2000/svg" width="24" height="24" viewBox="0 0 24 24">
  <path d="M15,3 C19.5522847,3 23,6.44771525 23,11 C23,15.5522847 19.5522847,19 15,19 L15,19 L14.492,19 L14.4215793,19.0906275 C13.7103901,19.9663638 12.948642,20.6393906 11.8907103,21.256749 L11.8907103,21.256749 L11.5946555,21.4238497 L11.2369286,21.6140163 L10.9086251,21.7821926 C9.57755795,22.4597178 8,21.4937799 8,20 L8,20 L8,19 C4.27285013,19 1,15.3634999 1,11 C1,6.5377729 4.49099359,3 9,3 L9,3 Z M12.3871006,7.20970461 L12.2928932,7.29289322 L9.29289322,10.2928932 C8.93240926,10.6533772 8.90467972,11.2206082 9.20970461,11.6128994 L9.29289322,11.7071068 L12.2928932,14.7071068 C12.6834175,15.0976311 13.3165825,15.0976311 13.7071068,14.7071068 C14.0675907,14.3466228 14.0953203,13.7793918 13.7902954,13.3871006 L13.7071068,13.2928932 L11.415,11 L13.7071068,8.70710678 C14.0675907,8.34662282 14.0953203,7.77939176 13.7902954,7.38710056 L13.7071068,7.29289322 C13.3466228,6.93240926 12.7793918,6.90467972 12.3871006,7.20970461 Z"/>
</svg>

<svg xmlns="http://www.w3.org/2000/svg" viewBox="0 0 24 24">
  <path d="M15 3c4.55 0 8 3.45 8 8s-3.45 8-8 8h-.5l-.08.1a8.85 8.85 0 0 1-2.53 2.16l-.3.16-.35.2-.33.16A2 2 0 0 1 8 20v-1c-3.73 0-7-3.64-7-8 0-4.46 3.5-8 8-8zm-2.61 4.21-.1.08-3 3a1 1 0 0 0-.08 1.32l.08.1 3 3a1 1 0 0 0 1.5-1.32l-.08-.1L11.4 11l2.3-2.3a1 1 0 0 0 .08-1.31l-.08-.1a1 1 0 0 0-1.32-.08z"/>
</svg>
